!!!OTL: ES WOLLT EINMAL EIN EDLER HERR AUSREITEN
!!!ARE: Europa, Mitteleuropa, Deutschland, Breslau
!!!SCT: E0033
!!!YEM: Copyright 1995, estate of Helmut Schaffrath.
**kern
*ICvox
*Ivox
*M2/4
*k[b-]
*F:
{8f
=1
8cc
8cc
8dd
8dd
=2
8cc
8a
8cc
8a
=3
4cc
8a}
{8f
=4
8cc
8cc
8dd
8dd
=5
8cc
8a
8cc
8a
=6
4cc
8a}
{8cc
=7
8b-
8b-
8a
8f
=8
8cc
8cc
8a
8f
=9
4g
8f}
==
!!!AGN: erzaehlendes Volks - Lied, Ritter - Sage, Ballade ?
!!!ONB: ESAC (Essen Associative Code) Database: ERK1
!!!AMT: simple duple
!!!AIN: vox
!!!EED: Helmut Schaffrath
!!!EEV: 1.0
*-
